scripts/assets/selodia-recolour-locked.cube
# Unflump recolor — minimal-warm-medium
LUT_3D_SIZE 5
0.47843 0.43529 0.38824
0.70955 0.52739 0.44701
0.70955 0.52739 0.44701
0.70955 0.52739 0.44701
0.70955 0.52739 0.44701
0.53259 0.49248 0.44672
0.70955 0.52739 0.44701
0.70955 0.52739 0.44701
0.73432 0.55345 0.47365
0.76665 0.58747 0.50841
0.61911 0.58386 0.54017
0.73313 0.55220 0.47237
0.76546 0.58622 0.50713
0.79779 0.62023 0.54189
0.83012 0.65425 0.57665
0.70564 0.67523 0.63362
0.79660 0.61898 0.54061
0.82893 0.65300 0.57537
0.86126 0.68701 0.61013
0.87576 0.70227 0.62573
0.79217 0.76660 0.72707
0.86007 0.68576 0.60885
0.87576 0.70227 0.62573
0.87576 0.70227 0.62573
0.87576 0.70227 0.62573
0.47843 0.43529 0.38824
0.50694 0.46540 0.41902
0.70955 0.52739 0.44701
0.70955 0.52739 0.44701
0.71551 0.53366 0.45342
0.54939 0.51023 0.46487
0.59347 0.55677 0.51247
0.71432 0.53241 0.45214
0.74665 0.56642 0.48690
0.77898 0.60044 0.52166
0.63592 0.60160 0.55832
0.67999 0.64814 0.60592
0.77779 0.59919 0.52038
0.81012 0.63320 0.55514
0.84245 0.66722 0.58990
0.72245 0.69297 0.65177
0.76652 0.73952 0.69937
0.84126 0.66597 0.58862
0.87359 0.69998 0.62338
0.87576 0.70227 0.62573
0.80897 0.78435 0.74522
0.85305 0.83089 0.79282
0.87576 0.70227 0.62573
0.87576 0.70227 0.62573
0.87576 0.70227 0.62573
0.47967 0.43660 0.38957
0.52374 0.48314 0.43717
0.56782 0.52969 0.48477
0.70955 0.52739 0.44701
0.72784 0.54663 0.46667
0.56620 0.52797 0.48302
0.61027 0.57452 0.53062
0.65434 0.62106 0.57822
0.75898 0.57939 0.50015
0.79130 0.61341 0.53491
0.65272 0.61935 0.57647
0.69680 0.66589 0.62407
0.74087 0.71243 0.67167
0.82244 0.64617 0.56839
0.85477 0.68019 0.60315
0.73925 0.71072 0.66992
0.78332 0.75726 0.71752
0.82740 0.80380 0.76512
0.87576 0.70227 0.62573
0.87576 0.70227 0.62573
0.82578 0.80209 0.76337
0.86985 0.84863 0.81097
0.91393 0.89518 0.85857
0.87576 0.70227 0.62573
0.87576 0.70227 0.62573
0.49647 0.45435 0.40772
0.54055 0.50089 0.45532
0.58462 0.54743 0.50292
0.62870 0.59397 0.55052
0.74016 0.55959 0.47992
0.58300 0.54572 0.50117
0.62707 0.59226 0.54877
0.67115 0.63880 0.59637
0.71522 0.68535 0.64397
0.80363 0.62638 0.54817
0.66953 0.63709 0.59462
0.71360 0.68363 0.64222
0.75768 0.73018 0.68982
0.80175 0.77672 0.73742
0.86710 0.69316 0.61641
0.75605 0.72846 0.68807
0.80013 0.77501 0.73567
0.84420 0.82155 0.78327
0.88828 0.86809 0.83087
0.87576 0.70227 0.62573
0.84258 0.81984 0.78152
0.88666 0.86638 0.82912
0.93073 0.91292 0.87672
0.96863 0.95294 0.91765
0.87576 0.70227 0.62573
0.51328 0.47209 0.42587
0.55735 0.51863 0.47347
0.60143 0.56518 0.52107
0.64550 0.61172 0.56867
0.68957 0.65826 0.61627
0.59980 0.56346 0.51932
0.64388 0.61001 0.56692
0.68795 0.65655 0.61452
0.73203 0.70309 0.66212
0.77610 0.74963 0.70972
0.68633 0.65484 0.61277
0.73041 0.70138 0.66037
0.77448 0.74792 0.70797
0.81855 0.79446 0.75557
0.86263 0.84101 0.80317
0.77286 0.74621 0.70622
0.81693 0.79275 0.75382
0.86101 0.83929 0.80142
0.90508 0.88584 0.84902
0.94916 0.93238 0.89662
0.85939 0.83758 0.79967
0.90346 0.88412 0.84727
0.94753 0.93067 0.89487
0.96863 0.95294 0.91765
0.96863 0.95294 0.91765
