scripts/assets/selodia-recolour-locked.cube
# Unflump recolor — minimal-warm-medium
LUT_3D_SIZE 65
0.47843 0.43529 0.38824
0.47843 0.43529 0.38824
0.47843 0.43529 0.38824
0.47843 0.43529 0.38824
0.47843 0.43529 0.38824
0.51963 0.45171 0.39871
0.56149 0.46839 0.40936
0.60335 0.48507 0.42000
0.64521 0.50175 0.43065
0.68706 0.51843 0.44129
0.70955 0.52739 0.44701
0.70955 0.52739 0.44701
0.70955 0.52739 0.44701
0.70955 0.52739 0.44701
0.70955 0.52739 0.44701
0.70955 0.52739 0.44701
0.70955 0.52739 0.44701
0.70955 0.52739 0.44701
0.70955 0.52739 0.44701
0.70955 0.52739 0.44701
0.70955 0.52739 0.44701
0.70955 0.52739 0.44701
0.70955 0.52739 0.44701
0.70955 0.52739 0.44701
0.70955 0.52739 0.44701
0.70955 0.52739 0.44701
0.70955 0.52739 0.44701
0.70955 0.52739 0.44701
0.70955 0.52739 0.44701
0.70955 0.52739 0.44701
0.70955 0.52739 0.44701
0.70955 0.52739 0.44701
0.70955 0.52739 0.44701
0.70955 0.52739 0.44701
0.70955 0.52739 0.44701
0.70955 0.52739 0.44701
0.70955 0.52739 0.44701
0.70955 0.52739 0.44701
0.70955 0.52739 0.44701
0.70955 0.52739 0.44701
0.70955 0.52739 0.44701
0.70955 0.52739 0.44701
0.70955 0.52739 0.44701
0.70955 0.52739 0.44701
0.70955 0.52739 0.44701
0.70955 0.52739 0.44701
0.70955 0.52739 0.44701
0.70955 0.52739 0.44701
0.70955 0.52739 0.44701
0.70955 0.52739 0.44701
0.70955 0.52739 0.44701
0.70955 0.52739 0.44701
0.70955 0.52739 0.44701
0.70955 0.52739 0.44701
0.70955 0.52739 0.44701
0.70955 0.52739 0.44701
0.70955 0.52739 0.44701
0.70955 0.52739 0.44701
0.70955 0.52739 0.44701
0.70955 0.52739 0.44701
0.70955 0.52739 0.44701
0.70955 0.52739 0.44701
0.70955 0.52739 0.44701
0.70955 0.52739 0.44701
0.70955 0.52739 0.44701
0.47843 0.43529 0.38824
0.47843 0.43529 0.38824
0.47843 0.43529 0.38824
0.47843 0.43529 0.38824
0.47843 0.43529 0.38824
0.51963 0.45171 0.39871
0.56149 0.46839 0.40936
0.60335 0.48507 0.42000
0.64521 0.50175 0.43065
0.68706 0.51843 0.44129
0.70955 0.52739 0.44701
0.70955 0.52739 0.44701
0.70955 0.52739 0.44701
0.70955 0.52739 0.44701
0.70955 0.52739 0.44701
0.70955 0.52739 0.44701
0.70955 0.52739 0.44701
0.70955 0.52739 0.44701
0.70955 0.52739 0.44701
0.70955 0.52739 0.44701
0.70955 0.52739 0.44701
0.70955 0.52739 0.44701
0.70955 0.52739 0.44701
0.70955 0.52739 0.44701
0.70955 0.52739 0.44701
0.70955 0.52739 0.44701
0.70955 0.52739 0.44701
0.70955 0.52739 0.44701
0.70955 0.52739 0.44701
0.70955 0.52739 0.44701
0.70955 0.52739 0.44701
0.70955 0.52739 0.44701
0.70955 0.52739 0.44701
0.70955 0.52739 0.44701
0.70955 0.52739 0.44701
0.70955 0.52739 0.44701
0.70955 0.52739 0.44701
0.70955 0.52739 0.44701
0.70955 0.52739 0.44701
0.70955 0.52739 0.44701
0.70955 0.52739 0.44701
0.70955 0.52739 0.44701
0.70955 0.52739 0.44701
0.70955 0.52739 0.44701
0.70955 0.52739 0.44701
0.70955 0.52739 0.44701
0.70955 0.52739 0.44701
0.70955 0.52739 0.44701
0.70955 0.52739 0.44701
0.70955 0.52739 0.44701
0.70955 0.52739 0.44701
0.70955 0.52739 0.44701
0.70955 0.52739 0.44701
0.70955 0.52739 0.44701
0.70955 0.52739 0.44701
0.70955 0.52739 0.44701
0.70955 0.52739 0.44701
0.70955 0.52739 0.44701
0.70955 0.52739 0.44701
0.70955 0.52739 0.44701
0.70955 0.52739 0.44701
0.70955 0.52739 0.44701
0.70955 0.52739 0.44701
0.70955 0.52739 0.44701
0.70955 0.52739 0.44701
0.47843 0.43529 0.38824
0.47843 0.43529 0.38824
0.47843 0.43529 0.38824
0.47843 0.43529 0.38824
0.47843 0.43529 0.38824
0.51963 0.45171 0.39871
0.56149 0.46839 0.40936
0.60335 0.48507 0.42000
0.64534 0.50189 0.43079
0.68738 0.51876 0.44163
0.70955 0.52739 0.44701
0.70955 0.52739 0.44701
0.70955 0.52739 0.44701
0.70955 0.52739 0.44701
0.70955 0.52739 0.44701
0.70955 0.52739 0.44701
0.70955 0.52739 0.44701
0.70955 0.52739 0.44701
0.70955 0.52739 0.44701
0.70955 0.52739 0.44701
0.70955 0.52739 0.44701
0.70955 0.52739 0.44701
0.70955 0.52739 0.44701
0.70955 0.52739 0.44701
0.70955 0.52739 0.44701
0.70955 0.52739 0.44701
0.70955 0.52739 0.44701
0.70955 0.52739 0.44701
0.70955 0.52739 0.44701
0.70955 0.52739 0.44701
0.70955 0.52739 0.44701
0.70955 0.52739 0.44701
0.70955 0.52739 0.44701
0.70955 0.52739 0.44701
0.70955 0.52739 0.44701
0.70955 0.52739 0.44701
0.70955 0.52739 0.44701
0.70955 0.52739 0.44701
0.70955 0.52739 0.44701
0.70955 0.52739 0.44701
0.70955 0.52739 0.44701
0.70955 0.52739 0.44701
0.70955 0.52739 0.44701
0.70955 0.52739 0.44701
0.70955 0.52739 0.44701
0.70955 0.52739 0.44701
0.70955 0.52739 0.44701
0.70955 0.52739 0.44701
0.70955 0.52739 0.44701
0.70955 0.52739 0.44701
0.70955 0.52739 0.44701
0.70955 0.52739 0.44701
0.70955 0.52739 0.44701
0.70955 0.52739 0.44701
0.70955 0.52739 0.44701
0.70955 0.52739 0.44701
0.70955 0.52739 0.44701
0.70955 0.52739 0.44701
0.70955 0.52739 0.44701
0.70955 0.52739 0.44701
0.70955 0.52739 0.44701
0.70955 0.52739 0.44701
0.70955 0.52739 0.44701
0.70955 0.52739 0.44701
0.71112 0.52903 0.44869
0.47843 0.43529 0.38824
0.47843 0.43529 0.38824
0.47843 0.43529 0.38824
0.47843 0.43529 0.38824
0.47843 0.43529 0.38824
0.51963 0.45171 0.39871
0.56173 0.46865 0.40962
0.60479 0.48659 0.42156
0.64685 0.50348 0.43242
0.68791 0.51932 0.44220
0.70955 0.52739 0.44701
0.70955 0.52739 0.44701
0.70955 0.52739 0.44701
0.70955 0.52739 0.44701
0.70955 0.52739 0.44701
0.70955 0.52739 0.44701
0.70955 0.52739 0.44701
0.70955 0.52739 0.44701
0.70955 0.52739 0.44701
0.70955 0.52739 0.44701
0.70955 0.52739 0.44701
0.70955 0.52739 0.44701
0.70955 0.52739 0.44701
0.70955 0.52739 0.44701
0.70955 0.52739 0.44701
0.70955 0.52739 0.44701
0.70955 0.52739 0.44701
0.70955 0.52739 0.44701
0.70955 0.52739 0.44701
0.70955 0.52739 0.44701
0.70955 0.52739 0.44701
0.70955 0.52739 0.44701
0.70955 0.52739 0.44701
0.70955 0.52739 0.44701
0.70955 0.52739 0.44701
0.70955 0.52739 0.44701
0.70955 0.52739 0.44701
0.70955 0.52739 0.44701
0.70955 0.52739 0.44701
0.70955 0.52739 0.44701
0.70955 0.52739 0.44701
0.70955 0.52739 0.44701
0.70955 0.52739 0.44701
0.70955 0.52739 0.44701
0.70955 0.52739 0.44701
0.70955 0.52739 0.44701
0.70955 0.52739 0.44701
0.70955 0.52739 0.44701
0.70955 0.52739 0.44701
0.70955 0.52739 0.44701
0.70955 0.52739 0.44701
0.70955 0.52739 0.44701
0.70955 0.52739 0.44701
0.70955 0.52739 0.44701
0.70955 0.52739 0.44701
0.70955 0.52739 0.44701
0.70955 0.52739 0.44701
0.70955 0.52739 0.44701
0.70955 0.52739 0.44701
0.70955 0.52739 0.44701
0.70955 0.52739 0.44701
0.70955 0.52739 0.44701
0.71104 0.52896 0.44861
0.71306 0.53108 0.45079
0.71508 0.53321 0.45296
0.47843 0.43529 0.38824
0.47843 0.43529 0.38824
0.47843 0.43529 0.38824
0.47843 0.43529 0.38824
0.47871 0.43559 0.38854
0.52213 0.45434 0.40141
0.56520 0.47231 0.41336
0.60727 0.48921 0.42424
0.64835 0.50507 0.43404
0.68843 0.51987 0.44277
0.70955 0.52739 0.44701
0.70955 0.52739 0.44701
0.70955 0.52739 0.44701
0.70955 0.52739 0.44701
0.70955 0.52739 0.44701
0.70955 0.52739 0.44701
0.70955 0.52739 0.44701
0.70955 0.52739 0.44701
0.70955 0.52739 0.44701
0.70955 0.52739 0.44701
0.70955 0.52739 0.44701
0.70955 0.52739 0.44701
0.70955 0.52739 0.44701
0.70955 0.52739 0.44701
0.70955 0.52739 0.44701
0.70955 0.52739 0.44701
0.70955 0.52739 0.44701
0.70955 0.52739 0.44701
0.70955 0.52739 0.44701
0.70955 0.52739 0.44701
0.70955 0.52739 0.44701
0.70955 0.52739 0.44701
0.70955 0.52739 0.44701
0.70955 0.52739 0.44701
0.70955 0.52739 0.44701
0.70955 0.52739 0.44701
0.70955 0.52739 0.44701
0.70955 0.52739 0.44701
0.70955 0.52739 0.44701
0.70955 0.52739 0.44701
0.70955 0.52739 0.44701
0.70955 0.52739 0.44701
0.70955 0.52739 0.44701
0.70955 0.52739 0.44701
0.70955 0.52739 0.44701
0.70955 0.52739 0.44701
0.70955 0.52739 0.44701
0.70955 0.52739 0.44701
0.70955 0.52739 0.44701
0.70955 0.52739 0.44701
0.70955 0.52739 0.44701
0.70955 0.52739 0.44701
0.70955 0.52739 0.44701
0.70955 0.52739 0.44701
0.70955 0.52739 0.44701
0.70955 0.52739 0.44701
0.70955 0.52739 0.44701
0.70955 0.52739 0.44701
0.70955 0.52739 0.44701
0.70955 0.52739 0.44701
0.71097 0.52888 0.44853
0.71299 0.53100 0.45071
0.71501 0.53313 0.45288
0.71703 0.53526 0.45505
0.71905 0.53738 0.45722
0.47843 0.43529 0.38824
0.47843 0.43529 0.38824
0.47861 0.43548 0.38843
0.48136 0.43839 0.39140
0.52431 0.45665 0.40376
0.52657 0.45904 0.40620
0.56866 0.47596 0.41710
0.60976 0.49184 0.42693
0.64986 0.50666 0.43567
0.68896 0.52043 0.44334
0.70955 0.52739 0.44701
0.70955 0.52739 0.44701
0.70955 0.52739 0.44701
0.70955 0.52739 0.44701
0.70955 0.52739 0.44701
0.70955 0.52739 0.44701
0.70955 0.52739 0.44701
0.70955 0.52739 0.44701
0.70955 0.52739 0.44701
0.70955 0.52739 0.44701
0.70955 0.52739 0.44701
0.70955 0.52739 0.44701
0.70955 0.52739 0.44701
0.70955 0.52739 0.44701
0.70955 0.52739 0.44701
0.70955 0.52739 0.44701
0.70955 0.52739 0.44701
0.70955 0.52739 0.44701
0.70955 0.52739 0.44701
0.70955 0.52739 0.44701
0.70955 0.52739 0.44701
0.70955 0.52739 0.44701
0.70955 0.52739 0.44701
0.70955 0.52739 0.44701
0.70955 0.52739 0.44701
0.70955 0.52739 0.44701
0.70955 0.52739 0.44701
0.70955 0.52739 0.44701
0.70955 0.52739 0.44701
0.70955 0.52739 0.44701
0.70955 0.52739 0.44701
0.70955 0.52739 0.44701
0.70955 0.52739 0.44701
0.70955 0.52739 0.44701
0.70955 0.52739 0.44701
0.70955 0.52739 0.44701
0.70955 0.52739 0.44701
0.70955 0.52739 0.44701
0.70955 0.52739 0.44701
0.70955 0.52739 0.44701
0.70955 0.52739 0.44701
0.70955 0.52739 0.44701
0.70955 0.52739 0.44701
0.70955 0.52739 0.44701
0.70955 0.52739 0.44701
0.70955 0.52739 0.44701
0.70955 0.52739 0.44701
0.70955 0.52739 0.44701
0.71089 0.52880 0.44845
0.71292 0.53093 0.45063
0.71494 0.53305 0.45280
0.71696 0.53518 0.45497
0.71898 0.53730 0.45714
0.72100 0.53943 0.45932
0.72302 0.54156 0.46149
0.47851 0.43537 0.38832
0.48126 0.43828 0.39129
0.48402 0.44119 0.39427
0.48677 0.44410 0.39724
0.56860 0.47590 0.41703
0.57036 0.47776 0.41894
0.57213 0.47962 0.42085
0.61224 0.49446 0.42961
0.65136 0.50825 0.43730
0.68948 0.52098 0.44391
0.70955 0.52739 0.44701
0.70955 0.52739 0.44701
0.70955 0.52739 0.44701
0.70955 0.52739 0.44701
0.70955 0.52739 0.44701
0.70955 0.52739 0.44701
0.70955 0.52739 0.44701
0.70955 0.52739 0.44701
0.70955 0.52739 0.44701
0.70955 0.52739 0.44701
0.70955 0.52739 0.44701
0.70955 0.52739 0.44701
0.70955 0.52739 0.44701
0.70955 0.52739 0.44701
0.70955 0.52739 0.44701
0.70955 0.52739 0.44701
0.70955 0.52739 0.44701
0.70955 0.52739 0.44701
0.70955 0.52739 0.44701
0.70955 0.52739 0.44701
0.70955 0.52739 0.44701
0.70955 0.52739 0.44701
0.70955 0.52739 0.44701
0.70955 0.52739 0.44701
0.70955 0.52739 0.44701
0.70955 0.52739 0.44701
0.70955 0.52739 0.44701
0.70955 0.52739 0.44701
0.70955 0.52739 0.44701
0.70955 0.52739 0.44701
0.70955 0.52739 0.44701
0.70955 0.52739 0.44701
0.70955 0.52739 0.44701
0.70955 0.52739 0.44701
0.70955 0.52739 0.44701
0.70955 0.52739 0.44701
0.70955 0.52739 0.44701
0.70955 0.52739 0.44701
0.70955 0.52739 0.44701
0.70955 0.52739 0.44701
0.70955 0.52739 0.44701
0.70955 0.52739 0.44701
0.70955 0.52739 0.44701
0.70955 0.52739 0.44701
0.70955 0.52739 0.44701
0.70955 0.52739 0.44701
0.71082 0.52872 0.44837
0.71284 0.53085 0.45055
0.71486 0.53297 0.45272
0.71688 0.53510 0.45489
0.71890 0.53723 0.45706
0.72092 0.53935 0.45924
0.72294 0.54148 0.46141
0.72496 0.54360 0.46358
0.72698 0.54573 0.46575
0.48392 0.44109 0.39416
0.48667 0.44399 0.39713
0.48942 0.44690 0.40011
0.49218 0.44981 0.40308
0.61093 0.49308 0.42819
0.61220 0.49441 0.42956
0.61346 0.49575 0.43093
0.61473 0.49709 0.43229
0.65287 0.50984 0.43892
0.69001 0.52154 0.44447
0.70955 0.52739 0.44701
0.70955 0.52739 0.44701
0.70955 0.52739 0.44701
0.70955 0.52739 0.44701
0.70955 0.52739 0.44701
0.70955 0.52739 0.44701
0.70955 0.52739 0.44701
0.70955 0.52739 0.44701
0.70955 0.52739 0.44701
0.70955 0.52739 0.44701
0.70955 0.52739 0.44701
0.70955 0.52739 0.44701
0.70955 0.52739 0.44701
0.70955 0.52739 0.44701
0.70955 0.52739 0.44701
0.70955 0.52739 0.44701
0.70955 0.52739 0.44701
0.70955 0.52739 0.44701
0.70955 0.52739 0.44701
0.70955 0.52739 0.44701
0.70955 0.52739 0.44701
0.70955 0.52739 0.44701
0.70955 0.52739 0.44701
0.70955 0.52739 0.44701
0.70955 0.52739 0.44701
0.70955 0.52739 0.44701
0.70955 0.52739 0.44701
0.70955 0.52739 0.44701
0.70955 0.52739 0.44701
0.70955 0.52739 0.44701
0.70955 0.52739 0.44701
0.70955 0.52739 0.44701
0.70955 0.52739 0.44701
0.70955 0.52739 0.44701
0.70955 0.52739 0.44701
0.70955 0.52739 0.44701
0.70955 0.52739 0.44701
0.70955 0.52739 0.44701
0.70955 0.52739 0.44701
0.70955 0.52739 0.44701
0.70955 0.52739 0.44701
0.70955 0.52739 0.44701
0.70955 0.52739 0.44701
0.70955 0.52739 0.44701
0.71075 0.52864 0.44829
0.71277 0.53077 0.45047
0.71479 0.53290 0.45264
0.71681 0.53502 0.45481
0.71883 0.53715 0.45698
0.72085 0.53927 0.45916
0.72287 0.54140 0.46133
0.72489 0.54353 0.46350
0.72691 0.54565 0.46567
0.72893 0.54778 0.46785
0.73095 0.54990 0.47002
0.48932 0.44680 0.40000
0.49208 0.44971 0.40297
0.49483 0.45261 0.40595
0.49759 0.45552 0.40892
0.65131 0.50819 0.43724
0.65207 0.50900 0.43806
0.65284 0.50981 0.43889
0.65361 0.51062 0.43972
0.65437 0.51143 0.44055
0.69054 0.52209 0.44504
0.70955 0.52739 0.44701
0.70955 0.52739 0.44701
0.70955 0.52739 0.44701
0.70955 0.52739 0.44701
0.70955 0.52739 0.44701
0.70955 0.52739 0.44701
0.70955 0.52739 0.44701
0.70955 0.52739 0.44701
0.70955 0.52739 0.44701
0.70955 0.52739 0.44701
0.70955 0.52739 0.44701
0.70955 0.52739 0.44701
0.70955 0.52739 0.44701
0.70955 0.52739 0.44701
0.70955 0.52739 0.44701
0.70955 0.52739 0.44701
0.70955 0.52739 0.44701
0.70955 0.52739 0.44701
0.70955 0.52739 0.44701
0.70955 0.52739 0.44701
0.70955 0.52739 0.44701
0.70955 0.52739 0.44701
0.70955 0.52739 0.44701
0.70955 0.52739 0.44701
0.70955 0.52739 0.44701
0.70955 0.52739 0.44701
0.70955 0.52739 0.44701
0.70955 0.52739 0.44701
0.70955 0.52739 0.44701
0.70955 0.52739 0.44701
0.70955 0.52739 0.44701
0.70955 0.52739 0.44701
0.70955 0.52739 0.44701
0.70955 0.52739 0.44701
0.70955 0.52739 0.44701
0.70955 0.52739 0.44701
0.70955 0.52739 0.44701
0.70955 0.52739 0.44701
0.70955 0.52739 0.44701
0.70955 0.52739 0.44701
0.70955 0.52739 0.44701
0.70955 0.52739 0.44701
0.71067 0.52857 0.44821
0.71269 0.53069 0.45039
0.71471 0.53282 0.45256
0.71673 0.53494 0.45473
0.71875 0.53707 0.45690
0.72077 0.53920 0.45908
0.72280 0.54132 0.46125
0.72482 0.54345 0.46342
0.72684 0.54557 0.46559
0.72886 0.54770 0.46777
0.73088 0.54983 0.46994
0.73290 0.55195 0.47211
0.73492 0.55408 0.47428
0.49473 0.45251 0.40584
0.49749 0.45542 0.40881
0.50024 0.45832 0.41179
0.50300 0.46123 0.41476
0.68972 0.52123 0.44416
0.68999 0.52152 0.44445
0.69026 0.52180 0.44474
0.69053 0.52208 0.44503
0.69079 0.52237 0.44532
0.69106 0.52265 0.44561
0.70955 0.52739 0.44701
0.70955 0.52739 0.44701
0.70955 0.52739 0.44701
0.70955 0.52739 0.44701
0.70955 0.52739 0.44701
0.70955 0.52739 0.44701
0.70955 0.52739 0.44701
0.70955 0.52739 0.44701
0.70955 0.52739 0.44701
0.70955 0.52739 0.44701
0.70955 0.52739 0.44701
0.70955 0.52739 0.44701
0.70955 0.52739 0.44701
0.70955 0.52739 0.44701
0.70955 0.52739 0.44701
0.70955 0.52739 0.44701
0.70955 0.52739 0.44701
0.70955 0.52739 0.44701
0.70955 0.52739 0.44701
0.70955 0.52739 0.44701
0.70955 0.52739 0.44701
0.70955 0.52739 0.44701
0.70955 0.52739 0.44701
0.70955 0.52739 0.44701
0.70955 0.52739 0.44701
0.70955 0.52739 0.44701
0.70955 0.52739 0.44701
0.70955 0.52739 0.44701
0.70955 0.52739 0.44701
0.70955 0.52739 0.44701
0.70955 0.52739 0.44701
0.70955 0.52739 0.44701
0.70955 0.52739 0.44701
0.70955 0.52739 0.44701
0.70955 0.52739 0.44701
0.70955 0.52739 0.44701
0.70955 0.52739 0.44701
0.70955 0.52739 0.44701
0.70955 0.52739 0.44701
0.70955 0.52739 0.44701
0.71060 0.52849 0.44813
0.71262 0.53061 0.45031
0.71464 0.53274 0.45248
0.71666 0.53487 0.45465
0.71868 0.53699 0.45682
0.72070 0.53912 0.45900
0.72272 0.54124 0.46117
0.72474 0.54337 0.46334
0.72676 0.54550 0.46551
0.72878 0.54762 0.46769
0.73080 0.54975 0.46986
0.73282 0.55187 0.47203
0.73484 0.55400 0.47421
0.73686 0.55613 0.47638
0.73888 0.55825 0.47855
0.50014 0.45822 0.41168
0.50289 0.46113 0.41465
0.50565 0.46404 0.41763
0.50840 0.46694 0.42060
0.70955 0.52739 0.44701
0.70955 0.52739 0.44701
0.70955 0.52739 0.44701
0.70955 0.52739 0.44701
0.70955 0.52739 0.44701
0.70955 0.52739 0.44701
0.70955 0.52739 0.44701
0.70955 0.52739 0.44701
0.70955 0.52739 0.44701
0.70955 0.52739 0.44701
0.70955 0.52739 0.44701
0.70955 0.52739 0.44701
0.70955 0.52739 0.44701
0.70955 0.52739 0.44701
0.70955 0.52739 0.44701
0.70955 0.52739 0.44701
0.70955 0.52739 0.44701
0.70955 0.52739 0.44701
0.70955 0.52739 0.44701
0.70955 0.52739 0.44701
0.70955 0.52739 0.44701
0.70955 0.52739 0.44701
0.70955 0.52739 0.44701
0.70955 0.52739 0.44701
0.70955 0.52739 0.44701
0.70955 0.52739 0.44701
0.70955 0.52739 0.44701
0.70955 0.52739 0.44701
0.70955 0.52739 0.44701
0.70955 0.52739 0.44701
0.70955 0.52739 0.44701
0.70955 0.52739 0.44701
0.70955 0.52739 0.44701
0.70955 0.52739 0.44701
0.70955 0.52739 0.44701
0.70955 0.52739 0.44701
0.70955 0.52739 0.44701
0.70955 0.52739 0.44701
0.70955 0.52739 0.44701
0.70955 0.52739 0.44701
0.70955 0.52739 0.44701
0.70955 0.52739 0.44701
0.70955 0.52739 0.44701
0.70955 0.52739 0.44701
0.71052 0.52841 0.44805
0.71254 0.53054 0.45023
0.71456 0.53266 0.45240
0.71658 0.53479 0.45457
0.71861 0.53691 0.45674
0.72063 0.53904 0.45892
0.72265 0.54116 0.46109
0.72467 0.54329 0.46326
0.72669 0.54542 0.46544
0.72871 0.54754 0.46761
0.73073 0.54967 0.46978
0.73275 0.55179 0.47195
0.73477 0.55392 0.47413
0.73679 0.55605 0.47630
0.73881 0.55817 0.47847
0.74083 0.56030 0.48064
0.74285 0.56242 0.48282
0.50555 0.46393 0.41752
0.50830 0.46684 0.42050
0.51106 0.46975 0.42347
0.51381 0.47266 0.42645
0.70955 0.52739 0.44701
0.70955 0.52739 0.44701
0.70955 0.52739 0.44701
0.70955 0.52739 0.44701
0.70955 0.52739 0.44701
0.70955 0.52739 0.44701
0.70955 0.52739 0.44701
0.70955 0.52739 0.44701
0.70955 0.52739 0.44701
0.70955 0.52739 0.44701
0.70955 0.52739 0.44701
0.70955 0.52739 0.44701
0.70955 0.52739 0.44701
0.70955 0.52739 0.44701
0.70955 0.52739 0.44701
0.70955 0.52739 0.44701
0.70955 0.52739 0.44701
0.70955 0.52739 0.44701
0.70955 0.52739 0.44701
0.70955 0.52739 0.44701
0.70955 0.52739 0.44701
0.70955 0.52739 0.44701
0.70955 0.52739 0.44701
0.70955 0.52739 0.44701
0.70955 0.52739 0.44701
0.70955 0.52739 0.44701
0.70955 0.52739 0.44701
0.70955 0.52739 0.44701
0.70955 0.52739 0.44701
0.70955 0.52739 0.44701
0.70955 0.52739 0.44701
0.70955 0.52739 0.44701
0.70955 0.52739 0.44701
0.70955 0.52739 0.44701
0.70955 0.52739 0.44701
0.70955 0.52739 0.44701
0.70955 0.52739 0.44701
0.70955 0.52739 0.44701
0.70955 0.52739 0.44701
0.70955 0.52739 0.44701
0.70955 0.52739 0.44701
0.70955 0.52739 0.44701
0.71045 0.52833 0.44798
0.71247 0.53046 0.45015
0.71449 0.53258 0.45232
0.71651 0.53471 0.45449
0.71853 0.53683 0.45667
0.72055 0.53896 0.45884
0.72257 0.54109 0.46101
0.72459 0.54321 0.46318
0.72661 0.54534 0.46536
0.72863 0.54746 0.46753
0.73065 0.54959 0.46970
0.73267 0.55172 0.47187
0.73470 0.55384 0.47405
0.73672 0.55597 0.47622
0.73874 0.55809 0.47839
0.74076 0.56022 0.48056
0.74278 0.56235 0.48274
0.74480 0.56447 0.48491
0.74682 0.56660 0.48708
0.51096 0.46964 0.42336
0.51371 0.47255 0.42634
0.51646 0.47546 0.42931
0.51922 0.47837 0.43229
0.70955 0.52739 0.44701
0.70955 0.52739 0.44701
0.70955 0.52739 0.44701
0.70955 0.52739 0.44701
0.70955 0.52739 0.44701
0.70955 0.52739 0.44701
0.70955 0.52739 0.44701
0.70955 0.52739 0.44701
0.70955 0.52739 0.44701
0.70955 0.52739 0.44701
0.70955 0.52739 0.44701
0.70955 0.52739 0.44701
0.70955 0.52739 0.44701
0.70955 0.52739 0.44701
0.70955 0.52739 0.44701
0.70955 0.52739 0.44701
0.70955 0.52739 0.44701
0.70955 0.52739 0.44701
0.70955 0.52739 0.44701
0.70955 0.52739 0.44701
0.70955 0.52739 0.44701
0.70955 0.52739 0.44701
0.70955 0.52739 0.44701
0.70955 0.52739 0.44701
0.70955 0.52739 0.44701
0.70955 0.52739 0.44701
0.70955 0.52739 0.44701
0.70955 0.52739 0.44701
0.70955 0.52739 0.44701
0.70955 0.52739 0.44701
0.70955 0.52739 0.44701
0.70955 0.52739 0.44701
0.70955 0.52739 0.44701
0.70955 0.52739 0.44701
0.70955 0.52739 0.44701
0.70955 0.52739 0.44701
0.70955 0.52739 0.44701
0.70955 0.52739 0.44701
0.70955 0.52739 0.44701
0.70955 0.52739 0.44701
0.71037 0.52825 0.44790
0.71239 0.53038 0.45007
0.71442 0.53250 0.45224
0.71644 0.53463 0.45441
0.71846 0.53676 0.45659
0.72048 0.53888 0.45876
0.72250 0.54101 0.46093
0.72452 0.54313 0.46310
0.72654 0.54526 0.46528
0.72856 0.54739 0.46745
0.73058 0.54951 0.46962
0.73260 0.55164 0.47179
0.73462 0.55376 0.47397
0.73664 0.55589 0.47614
0.73866 0.55802 0.47831
0.74068 0.56014 0.48048
0.74270 0.56227 0.48266
0.74472 0.56439 0.48483
0.74674 0.56652 0.48700
0.74876 0.56865 0.48917
0.75079 0.57077 0.49135
0.51636 0.47535 0.42920
0.51912 0.47826 0.43218
0.52187 0.48117 0.43515
0.52463 0.48408 0.43813
0.70955 0.52739 0.44701
0.70955 0.52739 0.44701
0.70955 0.52739 0.44701
0.70955 0.52739 0.44701
0.70955 0.52739 0.44701
0.70955 0.52739 0.44701
0.70955 0.52739 0.44701
0.70955 0.52739 0.44701
0.70955 0.52739 0.44701
0.70955 0.52739 0.44701
0.70955 0.52739 0.44701
0.70955 0.52739 0.44701
0.70955 0.52739 0.44701
0.70955 0.52739 0.44701
0.70955 0.52739 0.44701
0.70955 0.52739 0.44701
0.70955 0.52739 0.44701
0.70955 0.52739 0.44701
0.70955 0.52739 0.44701
0.70955 0.52739 0.44701
0.70955 0.52739 0.44701
0.70955 0.52739 0.44701
0.70955 0.52739 0.44701
0.70955 0.52739 0.44701
0.70955 0.52739 0.44701
0.70955 0.52739 0.44701
0.70955 0.52739 0.44701
0.70955 0.52739 0.44701
0.70955 0.52739 0.44701
0.70955 0.52739 0.44701
0.70955 0.52739 0.44701
0.70955 0.52739 0.44701
0.70955 0.52739 0.44701
0.70955 0.52739 0.44701
0.70955 0.52739 0.44701
0.70955 0.52739 0.44701
0.70955 0.52739 0.44701
0.70955 0.52739 0.44701
0.71030 0.52817 0.44782
0.71232 0.53030 0.44999
0.71434 0.53243 0.45216
0.71636 0.53455 0.45433
0.71838 0.53668 0.45651
0.72040 0.53880 0.45868
0.72242 0.54093 0.46085
0.72444 0.54306 0.46302
0.72646 0.54518 0.46520
0.72848 0.54731 0.46737
0.73051 0.54943 0.46954
0.73253 0.55156 0.47171
0.73455 0.55369 0.47389
