scripts/assets/selodia-recolour-locked.cube
# Unflump recolor — minimal-warm-medium
LUT_3D_SIZE 9
0.47843 0.43529 0.38824
0.64521 0.50175 0.43065
0.70955 0.52739 0.44701
0.70955 0.52739 0.44701
0.70955 0.52739 0.44701
0.70955 0.52739 0.44701
0.70955 0.52739 0.44701
0.70955 0.52739 0.44701
0.70955 0.52739 0.44701
0.48932 0.44680 0.40000
0.65437 0.51143 0.44055
0.70955 0.52739 0.44701
0.70955 0.52739 0.44701
0.70955 0.52739 0.44701
0.70955 0.52739 0.44701
0.70955 0.52739 0.44701
0.71875 0.53707 0.45690
0.73492 0.55408 0.47428
0.53259 0.49248 0.44672
0.70955 0.52739 0.44701
0.70955 0.52739 0.44701
0.70955 0.52739 0.44701
0.70955 0.52739 0.44701
0.71816 0.53644 0.45627
0.73432 0.55345 0.47365
0.75049 0.57046 0.49103
0.76665 0.58747 0.50841
0.57585 0.53817 0.49345
0.70955 0.52739 0.44701
0.70955 0.52739 0.44701
0.71756 0.53582 0.45563
0.73373 0.55283 0.47301
0.74989 0.56983 0.49039
0.76606 0.58684 0.50777
0.78222 0.60385 0.52515
0.79839 0.62086 0.54253
0.61911 0.58386 0.54017
0.71697 0.53519 0.45499
0.73313 0.55220 0.47237
0.74930 0.56921 0.48975
0.76546 0.58622 0.50713
0.78163 0.60322 0.52451
0.79779 0.62023 0.54189
0.81396 0.63724 0.55927
0.83012 0.65425 0.57665
0.66238 0.62954 0.58690
0.74870 0.56858 0.48911
0.76487 0.58559 0.50649
0.78103 0.60260 0.52387
0.79720 0.61961 0.54125
0.81336 0.63661 0.55863
0.82953 0.65362 0.57601
0.84569 0.67063 0.59339
0.86185 0.68764 0.61077
0.70564 0.67523 0.63362
0.78044 0.60197 0.52323
0.79660 0.61898 0.54061
0.81277 0.63599 0.55799
0.82893 0.65300 0.57537
0.84510 0.67000 0.59275
0.86126 0.68701 0.61013
0.87576 0.70227 0.62573
0.87576 0.70227 0.62573
0.74890 0.72091 0.68035
0.81217 0.63536 0.55735
0.82834 0.65237 0.57473
0.84450 0.66938 0.59211
0.86066 0.68639 0.60949
0.87576 0.70227 0.62573
0.87576 0.70227 0.62573
0.87576 0.70227 0.62573
0.87576 0.70227 0.62573
0.79217 0.76660 0.72707
0.84391 0.66875 0.59147
0.86007 0.68576 0.60885
0.87576 0.70227 0.62573
0.87576 0.70227 0.62573
0.87576 0.70227 0.62573
0.87576 0.70227 0.62573
0.87576 0.70227 0.62573
0.87576 0.70227 0.62573
0.47843 0.43529 0.38824
0.47843 0.43529 0.38824
0.70955 0.52739 0.44701
0.70955 0.52739 0.44701
0.70955 0.52739 0.44701
0.70955 0.52739 0.44701
0.70955 0.52739 0.44701
0.70955 0.52739 0.44701
0.70955 0.52739 0.44701
0.49773 0.45567 0.40907
0.51976 0.47894 0.43287
0.66285 0.52038 0.44970
0.70955 0.52739 0.44701
0.70955 0.52739 0.44701
0.70955 0.52739 0.44701
0.70955 0.52739 0.44701
0.72492 0.54355 0.46353
0.74108 0.56056 0.48091
0.54099 0.50136 0.45580
0.56303 0.52463 0.47960
0.67489 0.53310 0.46271
0.70955 0.52739 0.44701
0.70955 0.52739 0.44701
0.72432 0.54293 0.46289
0.74049 0.55994 0.48027
0.75665 0.57694 0.49765
0.77282 0.59395 0.51503
0.58425 0.54704 0.50252
0.60629 0.57031 0.52632
0.70955 0.52739 0.44701
0.72373 0.54230 0.46225
0.73989 0.55931 0.47963
0.75606 0.57632 0.49701
0.77222 0.59333 0.51439
0.78838 0.61033 0.53177
0.80455 0.62734 0.54915
0.62752 0.59273 0.54925
0.64955 0.61600 0.57305
0.73930 0.55868 0.47899
0.75546 0.57569 0.49637
0.77163 0.59270 0.51375
0.78779 0.60971 0.53113
0.80395 0.62672 0.54851
0.82012 0.64372 0.56589
0.83628 0.66073 0.58327
0.67078 0.63841 0.59597
0.69282 0.66169 0.61977
0.77103 0.59207 0.51311
0.78720 0.60908 0.53049
0.80336 0.62609 0.54787
0.81952 0.64310 0.56525
0.83569 0.66011 0.58263
0.85185 0.67711 0.60001
0.86802 0.69412 0.61740
0.71404 0.68410 0.64270
0.73608 0.70737 0.66650
0.80277 0.62547 0.54724
0.81893 0.64247 0.56462
0.83509 0.65948 0.58200
0.85126 0.67649 0.59938
0.86742 0.69350 0.61676
0.87576 0.70227 0.62573
0.87576 0.70227 0.62573
0.75731 0.72979 0.68942
0.77934 0.75306 0.71322
0.83450 0.65886 0.58136
0.85066 0.67586 0.59874
0.86683 0.69287 0.61612
0.87576 0.70227 0.62573
0.87576 0.70227 0.62573
0.87576 0.70227 0.62573
0.87576 0.70227 0.62573
0.80057 0.77547 0.73615
0.82261 0.79874 0.75995
0.86623 0.69225 0.61548
0.87576 0.70227 0.62573
0.87576 0.70227 0.62573
0.87576 0.70227 0.62573
0.87576 0.70227 0.62573
0.87576 0.70227 0.62573
0.87576 0.70227 0.62573
0.47843 0.43529 0.38824
0.48490 0.44213 0.39522
0.50694 0.46540 0.41902
0.70955 0.52739 0.44701
0.70955 0.52739 0.44701
0.70955 0.52739 0.44701
0.70955 0.52739 0.44701
0.70955 0.52739 0.44701
0.71551 0.53366 0.45342
0.50613 0.46454 0.41815
0.52816 0.48781 0.44195
0.55020 0.51108 0.46575
0.70955 0.52739 0.44701
0.70955 0.52739 0.44701
0.70955 0.52739 0.44701
0.71492 0.53303 0.45278
0.73108 0.55004 0.47016
0.74724 0.56705 0.48754
0.54939 0.51023 0.46487
0.57143 0.53350 0.48867
0.59347 0.55677 0.51247
0.68337 0.54205 0.47186
0.71432 0.53241 0.45214
0.73049 0.54941 0.46952
0.74665 0.56642 0.48690
0.76281 0.58343 0.50428
0.77898 0.60044 0.52166
0.59265 0.55591 0.51160
0.61469 0.57919 0.53540
0.63673 0.60246 0.55920
0.71009 0.57021 0.50065
0.74605 0.56580 0.48626
0.76222 0.58280 0.50364
0.77838 0.59981 0.52102
0.79455 0.61682 0.53840
0.81071 0.63383 0.55578
0.63592 0.60160 0.55832
0.65796 0.62487 0.58212
0.67999 0.64814 0.60592
0.76162 0.58218 0.50300
0.77779 0.59919 0.52038
0.79395 0.61619 0.53776
0.81012 0.63320 0.55514
0.82628 0.65021 0.57252
0.84245 0.66722 0.58990
0.67918 0.64729 0.60505
0.70122 0.67056 0.62885
0.72326 0.69383 0.65265
0.79336 0.61557 0.53712
0.80952 0.63258 0.55450
0.82569 0.64958 0.57188
0.84185 0.66659 0.58926
0.85802 0.68360 0.60664
0.87418 0.70061 0.62402
0.72245 0.69297 0.65177
0.74448 0.71624 0.67557
0.76652 0.73952 0.69937
0.82509 0.64896 0.57124
0.84126 0.66597 0.58862
0.85742 0.68297 0.60600
0.87359 0.69998 0.62338
0.87576 0.70227 0.62573
0.87576 0.70227 0.62573
0.76571 0.73866 0.69850
0.78775 0.76193 0.72230
0.80978 0.78520 0.74610
0.85683 0.68235 0.60536
0.87299 0.69936 0.62274
0.87576 0.70227 0.62573
0.87576 0.70227 0.62573
0.87576 0.70227 0.62573
0.87576 0.70227 0.62573
0.80897 0.78435 0.74522
0.83101 0.80762 0.76902
0.85305 0.83089 0.79282
0.87576 0.70227 0.62573
0.87576 0.70227 0.62573
0.87576 0.70227 0.62573
0.87576 0.70227 0.62573
0.87576 0.70227 0.62573
0.87576 0.70227 0.62573
0.47843 0.43529 0.38824
0.49330 0.45100 0.40430
0.51534 0.47427 0.42810
0.53738 0.49754 0.45190
0.70955 0.52739 0.44701
0.70955 0.52739 0.44701
0.70955 0.52739 0.44701
0.70955 0.52739 0.44701
0.72167 0.54014 0.46004
0.51453 0.47341 0.42722
0.53657 0.49669 0.45102
0.55860 0.51996 0.47482
0.58064 0.54323 0.49862
0.70955 0.52739 0.44701
0.70955 0.52739 0.44701
0.72108 0.53952 0.45940
0.73724 0.55652 0.47678
0.75341 0.57353 0.49416
0.55779 0.51910 0.47395
0.57983 0.54237 0.49775
0.60187 0.56564 0.52155
0.62390 0.58891 0.54535
0.72048 0.53889 0.45876
0.73665 0.55590 0.47615
0.75281 0.57291 0.49353
0.76898 0.58991 0.51091
0.78514 0.60692 0.52829
0.60106 0.56479 0.52067
0.62309 0.58806 0.54447
0.64513 0.61133 0.56827
0.66717 0.63460 0.59207
0.73467 0.59611 0.52713
0.76838 0.58929 0.51027
0.78455 0.60630 0.52765
0.80071 0.62330 0.54503
0.81688 0.64031 0.56241
0.64432 0.61047 0.56740
0.66636 0.63374 0.59120
0.68839 0.65702 0.61500
0.71043 0.68029 0.63880
0.76962 0.63292 0.56476
0.80012 0.62268 0.54439
0.81628 0.63969 0.56177
0.83244 0.65669 0.57915
0.84861 0.67370 0.59653
0.68758 0.65616 0.61412
0.70962 0.67943 0.63792
0.73166 0.70270 0.66172
0.75370 0.72597 0.68552
0.81569 0.63906 0.56113
0.83185 0.65607 0.57851
0.84801 0.67308 0.59589
0.86418 0.69008 0.61327
0.87576 0.70227 0.62573
0.73085 0.70185 0.66084
0.75288 0.72512 0.68465
0.77492 0.74839 0.70845
0.79696 0.77166 0.73225
0.84742 0.67245 0.59525
0.86358 0.68946 0.61263
0.87576 0.70227 0.62573
0.87576 0.70227 0.62573
0.87576 0.70227 0.62573
0.77411 0.74753 0.70757
0.79615 0.77080 0.73137
0.81819 0.79407 0.75517
0.84022 0.81735 0.77897
0.87576 0.70227 0.62573
0.87576 0.70227 0.62573
0.87576 0.70227 0.62573
0.87576 0.70227 0.62573
0.87576 0.70227 0.62573
0.81737 0.79322 0.75429
0.83941 0.81649 0.77809
0.86145 0.83976 0.80189
0.88349 0.86303 0.82569
0.87576 0.70227 0.62573
0.87576 0.70227 0.62573
0.87576 0.70227 0.62573
0.87576 0.70227 0.62573
0.87576 0.70227 0.62573
0.47967 0.43660 0.38957
0.50171 0.45987 0.41337
0.52374 0.48314 0.43717
0.54578 0.50641 0.46097
0.56782 0.52969 0.48477
0.70955 0.52739 0.44701
0.70955 0.52739 0.44701
0.71167 0.52962 0.44929
0.72784 0.54663 0.46667
0.52293 0.48229 0.43630
0.54497 0.50556 0.46010
0.56701 0.52883 0.48390
0.58904 0.55210 0.50770
0.61108 0.57537 0.53150
0.71108 0.52899 0.44865
0.72724 0.54600 0.46603
0.74341 0.56301 0.48341
0.75957 0.58002 0.50079
0.56620 0.52797 0.48302
0.58823 0.55124 0.50682
0.61027 0.57452 0.53062
0.63231 0.59779 0.55442
0.65434 0.62106 0.57822
0.74281 0.56238 0.48277
0.75898 0.57939 0.50015
0.77514 0.59640 0.51753
0.79130 0.61341 0.53491
0.60946 0.57366 0.52975
0.63150 0.59693 0.55355
0.65353 0.62020 0.57735
0.67557 0.64347 0.60115
0.69761 0.66674 0.62495
0.77455 0.59577 0.51689
0.79071 0.61278 0.53427
0.80687 0.62979 0.55165
0.82304 0.64680 0.56903
0.65272 0.61935 0.57647
0.67476 0.64262 0.60027
0.69680 0.66589 0.62407
0.71883 0.68916 0.64787
0.74087 0.71243 0.67167
0.79420 0.65882 0.59123
0.82244 0.64617 0.56839
0.83861 0.66318 0.58577
0.85477 0.68019 0.60315
0.69599 0.66503 0.62319
0.71802 0.68830 0.64699
0.74006 0.71157 0.67079
0.76210 0.73485 0.69459
0.78413 0.75812 0.71840
0.82915 0.69564 0.62886
0.85418 0.67956 0.60251
0.87034 0.69657 0.61989
0.87576 0.70227 0.62573
0.73925 0.71072 0.66992
0.76129 0.73399 0.69372
0.78332 0.75726 0.71752
0.80536 0.78053 0.74132
0.82740 0.80380 0.76512
0.86975 0.69594 0.61926
0.87576 0.70227 0.62573
0.87576 0.70227 0.62573
0.87576 0.70227 0.62573
0.78251 0.75640 0.71664
0.80455 0.77968 0.74044
0.82659 0.80295 0.76424
0.84862 0.82622 0.78804
0.87066 0.84949 0.81184
0.87576 0.70227 0.62573
0.87576 0.70227 0.62573
0.87576 0.70227 0.62573
0.87576 0.70227 0.62573
0.82578 0.80209 0.76337
0.84781 0.82536 0.78717
0.86985 0.84863 0.81097
0.89189 0.87190 0.83477
0.91393 0.89518 0.85857
0.87576 0.70227 0.62573
0.87576 0.70227 0.62573
0.87576 0.70227 0.62573
0.87576 0.70227 0.62573
0.48807 0.44547 0.39865
0.51011 0.46874 0.42245
0.53214 0.49202 0.44625
0.55418 0.51529 0.47005
0.57622 0.53856 0.49385
0.59826 0.56183 0.51765
0.70955 0.52739 0.44701
0.71783 0.53610 0.45592
0.73400 0.55311 0.47330
0.53133 0.49116 0.44537
0.55337 0.51443 0.46917
0.57541 0.53770 0.49297
0.59745 0.56097 0.51677
0.61948 0.58424 0.54057
0.64152 0.60752 0.56437
0.73340 0.55248 0.47266
0.74957 0.56949 0.49004
0.76573 0.58650 0.50742
0.57460 0.53685 0.49209
0.59663 0.56012 0.51590
0.61867 0.58339 0.53970
0.64071 0.60666 0.56350
0.66275 0.62993 0.58730
0.68478 0.65320 0.61110
0.76514 0.58587 0.50678
0.78130 0.60288 0.52416
0.79747 0.61989 0.54154
0.61786 0.58253 0.53882
0.63990 0.60580 0.56262
0.66194 0.62907 0.58642
0.68397 0.65235 0.61022
0.70601 0.67562 0.63402
0.72805 0.69889 0.65782
0.79687 0.61926 0.54090
0.81304 0.63627 0.55828
0.82920 0.65328 0.57566
0.66112 0.62822 0.58554
0.68316 0.65149 0.60934
0.70520 0.67476 0.63314
0.72724 0.69803 0.65694
0.74927 0.72130 0.68074
0.77131 0.74457 0.70454
0.82861 0.65265 0.57502
0.84477 0.66966 0.59240
0.86093 0.68667 0.60978
0.70439 0.67390 0.63227
0.72643 0.69718 0.65607
0.74846 0.72045 0.67987
0.77050 0.74372 0.70367
0.79254 0.76699 0.72747
0.81457 0.79026 0.75127
0.85373 0.72154 0.65534
0.87576 0.70227 0.62573
0.87576 0.70227 0.62573
0.74765 0.71959 0.67899
0.76969 0.74286 0.70279
0.79173 0.76613 0.72659
0.81376 0.78940 0.75039
0.83580 0.81268 0.77419
0.85784 0.83595 0.79799
0.87691 0.74597 0.68031
0.87576 0.70227 0.62573
0.87576 0.70227 0.62573
0.79092 0.76528 0.72572
0.81295 0.78855 0.74952
0.83499 0.81182 0.77332
0.85703 0.83509 0.79712
0.87906 0.85836 0.82092
0.90110 0.88163 0.84472
0.87576 0.70227 0.62573
0.87576 0.70227 0.62573
0.87576 0.70227 0.62573
0.83418 0.81096 0.77244
0.85622 0.83423 0.79624
0.87825 0.85751 0.82004
0.90029 0.88078 0.84384
0.92233 0.90405 0.86764
0.94436 0.92732 0.89144
0.87576 0.70227 0.62573
0.87576 0.70227 0.62573
0.87576 0.70227 0.62573
0.49647 0.45435 0.40772
0.51851 0.47762 0.43152
0.54055 0.50089 0.45532
0.56258 0.52416 0.47912
0.58462 0.54743 0.50292
0.60666 0.57070 0.52672
0.62870 0.59397 0.55052
0.72400 0.54259 0.46254
0.74016 0.55959 0.47992
0.53974 0.50003 0.45444
0.56177 0.52330 0.47824
0.58381 0.54657 0.50204
0.60585 0.56985 0.52584
0.62788 0.59312 0.54965
0.64992 0.61639 0.57345
0.67196 0.63966 0.59725
0.75573 0.57598 0.49666
0.77190 0.59299 0.51404
0.58300 0.54572 0.50117
0.60504 0.56899 0.52497
0.62707 0.59226 0.54877
0.64911 0.61553 0.57257
0.67115 0.63880 0.59637
0.69319 0.66207 0.62017
0.71522 0.68535 0.64397
0.78747 0.60937 0.53078
0.80363 0.62638 0.54817
0.62626 0.59140 0.54789
0.64830 0.61468 0.57169
0.67034 0.63795 0.59549
0.69237 0.66122 0.61929
0.71441 0.68449 0.64309
0.73645 0.70776 0.66689
0.75849 0.73103 0.69069
0.81920 0.64276 0.56491
0.83536 0.65977 0.58229
0.66953 0.63709 0.59462
0.69156 0.66036 0.61842
0.71360 0.68363 0.64222
0.73564 0.70690 0.66602
0.75768 0.73018 0.68982
0.77971 0.75345 0.71362
0.80175 0.77672 0.73742
0.85093 0.67615 0.59903
0.86710 0.69316 0.61641
0.71279 0.68278 0.64134
0.73483 0.70605 0.66514
0.75686 0.72932 0.68894
0.77890 0.75259 0.71274
0.80094 0.77586 0.73654
0.82298 0.79913 0.76034
0.84501 0.82240 0.78414
0.87576 0.70227 0.62573
0.87576 0.70227 0.62573
0.75605 0.72846 0.68807
0.77809 0.75173 0.71187
0.80013 0.77501 0.73567
0.82217 0.79828 0.75947
0.84420 0.82155 0.78327
0.86624 0.84482 0.80707
0.88828 0.86809 0.83087
0.88538 0.75492 0.68947
0.87576 0.70227 0.62573
0.79932 0.77415 0.73479
0.82135 0.79742 0.75859
0.84339 0.82069 0.78239
0.86543 0.84396 0.80619
0.88747 0.86723 0.82999
0.90950 0.89051 0.85379
0.93154 0.91378 0.87759
0.89743 0.76764 0.70247
0.87576 0.70227 0.62573
0.84258 0.81984 0.78152
0.86462 0.84311 0.80532
0.88666 0.86638 0.82912
0.90869 0.88965 0.85292
0.93073 0.91292 0.87672
0.95277 0.93619 0.90052
0.96863 0.95294 0.91765
0.87576 0.70227 0.62573
0.87576 0.70227 0.62573
0.50487 0.46322 0.41679
0.52691 0.48649 0.44059
0.54895 0.50976 0.46439
0.57099 0.53303 0.48819
0.59302 0.55630 0.51199
0.61506 0.57957 0.53579
0.63710 0.60285 0.55959
0.65913 0.62612 0.58340
0.74633 0.56608 0.48655
0.54814 0.50890 0.46352
0.57018 0.53218 0.48732
0.59221 0.55545 0.51112
0.61425 0.57872 0.53492
0.63629 0.60199 0.55872
0.65832 0.62526 0.58252
0.68036 0.64853 0.60632
0.70240 0.67180 0.63012
0.77806 0.59947 0.52067
0.59140 0.55459 0.51024
0.61344 0.57786 0.53404
0.63548 0.60113 0.55784
0.65751 0.62440 0.58164
0.67955 0.64768 0.60544
0.70159 0.67095 0.62924
0.72362 0.69422 0.65304
0.74566 0.71749 0.67684
0.80979 0.63286 0.55479
0.63467 0.60028 0.55697
0.65670 0.62355 0.58077
0.67874 0.64682 0.60457
0.70078 0.67009 0.62837
0.72281 0.69336 0.65217
0.74485 0.71663 0.67597
0.76689 0.73990 0.69977
0.78893 0.76318 0.72357
0.84153 0.66625 0.58891
0.67793 0.64596 0.60369
0.69997 0.66923 0.62749
0.72200 0.69251 0.65129
0.74404 0.71578 0.67509
0.76608 0.73905 0.69889
0.78811 0.76232 0.72269
0.81015 0.78559 0.74649
0.83219 0.80886 0.77029
0.87326 0.69964 0.62303
0.72119 0.69165 0.65042
0.74323 0.71492 0.67422
0.76527 0.73819 0.69802
0.78730 0.76146 0.72182
0.80934 0.78473 0.74562
0.83138 0.80801 0.76942
0.85342 0.83128 0.79322
0.87545 0.85455 0.81702
0.87576 0.70227 0.62573
0.76446 0.73734 0.69714
0.78649 0.76061 0.72094
0.80853 0.78388 0.74474
0.83057 0.80715 0.76854
0.85260 0.83042 0.79234
0.87464 0.85369 0.81614
0.89668 0.87696 0.83994
0.91872 0.90023 0.86374
0.87576 0.70227 0.62573
0.80772 0.78302 0.74387
0.82976 0.80629 0.76767
0.85179 0.82957 0.79147
0.87383 0.85284 0.81527
0.89587 0.87611 0.83907
0.91791 0.89938 0.86287
0.93994 0.92265 0.88667
0.96198 0.94592 0.91047
0.90162 0.77206 0.70700
0.85098 0.82871 0.79059
0.87302 0.85198 0.81439
0.89506 0.87525 0.83819
0.91709 0.89852 0.86199
0.93913 0.92179 0.88579
0.96117 0.94507 0.90959
0.96863 0.95294 0.91765
0.96863 0.95294 0.91765
0.90162 0.77206 0.70700
0.51328 0.47209 0.42587
0.53531 0.49536 0.44967
0.55735 0.51863 0.47347
0.57939 0.54190 0.49727
0.60143 0.56518 0.52107
0.62346 0.58845 0.54487
0.64550 0.61172 0.56867
0.66754 0.63499 0.59247
0.68957 0.65826 0.61627
0.55654 0.51778 0.47259
0.57858 0.54105 0.49639
0.60061 0.56432 0.52019
0.62265 0.58759 0.54399
0.64469 0.61086 0.56779
0.66673 0.63413 0.59159
0.68876 0.65740 0.61539
0.71080 0.68068 0.63919
0.73284 0.70395 0.66299
0.59980 0.56346 0.51932
0.62184 0.58673 0.54312
0.64388 0.61001 0.56692
0.66592 0.63328 0.59072
0.68795 0.65655 0.61452
0.70999 0.67982 0.63832
0.73203 0.70309 0.66212
0.75406 0.72636 0.68592
0.77610 0.74963 0.70972
0.64307 0.60915 0.56604
0.66510 0.63242 0.58984
0.68714 0.65569 0.61364
0.70918 0.67896 0.63744
0.73122 0.70223 0.66124
0.75325 0.72551 0.68504
0.77529 0.74878 0.70884
0.79733 0.77205 0.73264
0.81936 0.79532 0.75644
0.68633 0.65484 0.61277
0.70837 0.67811 0.63657
0.73041 0.70138 0.66037
0.75244 0.72465 0.68417
0.77448 0.74792 0.70797
0.79652 0.77119 0.73177
0.81855 0.79446 0.75557
0.84059 0.81773 0.77937
0.86263 0.84101 0.80317
0.72959 0.70052 0.65949
0.75163 0.72379 0.68329
0.77367 0.74707 0.70709
0.79571 0.77034 0.73089
0.81774 0.79361 0.75469
0.83978 0.81688 0.77849
0.86182 0.84015 0.80229
0.88385 0.86342 0.82609
0.90589 0.88669 0.84989
0.77286 0.74621 0.70622
0.79490 0.76948 0.73002
0.81693 0.79275 0.75382
0.83897 0.81602 0.77762
0.86101 0.83929 0.80142
0.88304 0.86257 0.82522
0.90508 0.88584 0.84902
0.92712 0.90911 0.87282
0.94916 0.93238 0.89662
0.81612 0.79190 0.75294
0.83816 0.81517 0.77674
0.86020 0.83844 0.80054
0.88223 0.86171 0.82434
0.90427 0.88498 0.84814
0.92631 0.90825 0.87194
0.94834 0.93152 0.89574
0.96863 0.95294 0.91765
0.96863 0.95294 0.91765
0.85939 0.83758 0.79967
0.88142 0.86085 0.82347
0.90346 0.88412 0.84727
0.92550 0.90740 0.87107
0.94753 0.93067 0.89487
0.96863 0.95294 0.91765
0.96863 0.95294 0.91765
0.96863 0.95294 0.91765
0.96863 0.95294 0.91765
